X:1
T: Paddy's Whiskers
C:
R:Jig
Q:180
K:D
M:6/8
L:1/16
AG|F2G2A2 B2c2d2|c2B2A2 d4e2|f2d2B2 A2G2F2|G2F2G2 E2A2G2|F2G2A2 B2c2d2|c2B2A2 d4e2|f2d2B2 A2F2A2|B2d2d2 d4AG|
F2G2A2 B2c2d2|c2B2A2 d4e2|f2d2B2 A2G2F2|G2F2G2 E2A2G2|F2G2A2 B2c2d2|c2B2A2 d4e2|f2d2B2 A2F2A2|B2d2d2 d4fg|
a2A2A2 A2B2A2|a2g2f2 e2c2A2|d2D2D2 D2E2D2|A2G2F2 E4AG|F2G2A2 B2c2d2|c2B2A2 g4g2|f2d2B2 A2F2A2|B2d2d2 d4fg|
a2A2A2 A2B2A2|a2g2f2 e2c2A2|d2D2D2 D2E2D2|A2G2F2 E4AG|F2G2A2 B2c2d2|c2B2A2 g4g2|f2d2B2 A2F2A2|B2d2d2 d4||
